;FLAVOR:Marlin
;TIME:6407
;Filament used: 3.24452m
;Layer height: 0.15
;Generated with Cura_SteamEngine 3.4.1
M82 ;absolute extrusion mode
G21 ; set units to millimeters
G90 ; use absolute positioning
M82 ; absolute extrusion mode
M104 S210 ; set extruder temp
M140 S60 ; set bed temp
M190 S60 ; wait for bed temp
M109 S210 ; wait for extruder temp
G28 W ; home all without mesh bed level
G80 ; mesh bed leveling
G92 E0.0 ; reset extruder distance position
G1 Y-3.0 F1000.0 ; go outside print area
G1 X60.0 E9.0 F1000.0 ; intro line
G1 X100.0 E21.5 F1000.0 ; intro line
G92 E0.0 ; reset extruder distance position
G92 E0
G1 F2100 E-0.8
;LAYER_COUNT:301
;LAYER:0
M107
G0 F3600 X109.171 Y92.324 Z0.15
;TYPE:SKIRT
G1 F2100 E0
G1 F1800 X109.727 Y91.763 E0.0197
G1 X110.336 Y91.261 E0.03939
G1 X110.931 Y90.864 E0.05723
G1 X111.121 Y90.558 E0.06622
G1 X111.604 Y89.933 E0.08592
G1 X112.241 Y89.271 E0.10884
G1 X112.449 Y89.079 E0.1159
G1 X113.056 Y88.573 E0.13561
G1 X113.711 Y88.131 E0.15532
G1 X114.407 Y87.758 E0.17502
G1 X115.137 Y87.457 E0.19472
G1 X115.894 Y87.232 E0.21442
G1 X116.004 Y87.211 E0.21721
G1 X116.296 Y86.967 E0.2267
G1 X117.079 Y86.448 E0.25014
G1 X117.3 Y86.32 E0.25651
G1 X118.002 Y85.96 E0.27619
G1 X118.738 Y85.672 E0.2959
G1 X119.498 Y85.46 E0.31559
G1 X120.277 Y85.326 E0.3353
G1 X121.064 Y85.271 E0.35498
G1 X121.854 Y85.297 E0.3747
G1 X121.874 Y85.3 E0.3752
G1 X122.263 Y85.141 E0.38569
G1 X123.021 Y84.918 E0.4054
G1 X123.797 Y84.773 E0.42509
G1 X124.839 Y84.703 E0.45114
G1 X125.159 Y84.703 E0.45912
G1 X125.948 Y84.743 E0.47883
G1 X126.728 Y84.862 E0.49851
G1 X127.493 Y85.06 E0.51822
G1 X128.135 Y85.298 E0.5353
G1 X128.576 Y85.268 E0.54633
G1 X129.365 Y85.295 E0.56602
G1 X130.148 Y85.401 E0.58573
G1 X131.123 Y85.65 E0.61084
G1 X131.427 Y85.749 E0.61881
G1 X132.165 Y86.032 E0.63853
G1 X132.87 Y86.387 E0.65822
G1 X133.536 Y86.812 E0.67793
G1 X134.058 Y87.225 E0.69453
G1 X134.458 Y87.323 E0.7048
G1 X135.202 Y87.589 E0.72451
G1 X135.915 Y87.928 E0.74421
G1 X136.801 Y88.485 E0.77031
G1 X137.061 Y88.674 E0.77833
G1 X137.676 Y89.17 E0.79804
G1 X138.237 Y89.726 E0.81774
G1 X138.739 Y90.335 E0.83743
G1 X139.116 Y90.9 E0.85437
G1 X139.462 Y91.115 E0.86454
G1 X140.087 Y91.598 E0.88424
G1 X140.661 Y92.141 E0.90395
G1 X141.326 Y92.939 E0.92986
G1 X141.515 Y93.199 E0.93788
G1 X141.947 Y93.86 E0.95758
G1 X142.309 Y94.562 E0.97728
G1 X142.598 Y95.297 E0.99698
G1 X142.784 Y95.956 E1.01406
G1 X143.043 Y96.263 E1.02408
G1 X143.488 Y96.915 E1.04377
G1 X143.866 Y97.609 E1.06349
G1 X144.252 Y98.571 E1.08934
G1 X144.351 Y98.875 E1.09732
G1 X144.557 Y99.637 E1.11701
G1 X144.685 Y100.416 E1.1367
G1 X144.734 Y101.204 E1.1564
G1 X144.706 Y101.888 E1.17347
G1 X144.859 Y102.263 E1.18358
G1 X145.082 Y103.021 E1.20329
G1 X145.227 Y103.797 E1.22298
G1 X145.297 Y104.839 E1.24903
G1 X145.297 Y105.159 E1.25701
G1 X145.257 Y105.948 E1.27672
G1 X145.138 Y106.728 E1.2964
G1 X144.94 Y107.493 E1.31611
G1 X144.703 Y108.134 E1.33316
G1 X144.732 Y108.537 E1.34324
G1 X144.71 Y109.326 E1.36293
G1 X144.607 Y110.109 E1.38263
G1 X144.351 Y111.124 E1.40874
G1 X144.252 Y111.428 E1.41672
G1 X143.969 Y112.166 E1.43643
G1 X143.614 Y112.871 E1.45612
G1 X143.189 Y113.537 E1.47583
G1 X142.773 Y114.063 E1.49256
G1 X142.677 Y114.454 E1.5026
G1 X142.412 Y115.198 E1.5223
G1 X142.073 Y115.911 E1.542
G1 X141.515 Y116.799 E1.56816
G1 X141.326 Y117.059 E1.57618
G1 X140.83 Y117.674 E1.59589
G1 X140.274 Y118.235 E1.61559
G1 X139.665 Y118.737 E1.63528
G1 X139.102 Y119.113 E1.65217
G1 X138.885 Y119.462 E1.66242
G1 X138.402 Y120.087 E1.68212
G1 X137.859 Y120.661 E1.70183
G1 X137.061 Y121.326 E1.72774
G1 X136.801 Y121.515 E1.73576
G1 X136.14 Y121.947 E1.75546
G1 X135.438 Y122.309 E1.77516
G1 X134.703 Y122.598 E1.79486
G1 X133.967 Y122.805 E1.81393
G1 X133.737 Y123 E1.82146
G1 X133.415 Y123.232 E1.83136
G1 X133.222 Y123.364 E1.83719
G1 X132.549 Y123.776 E1.85687
G1 X131.837 Y124.118 E1.87658
G1 X131.094 Y124.387 E1.89629
G1 X130.328 Y124.579 E1.91599
G1 X129.547 Y124.692 E1.93567
G1 X128.758 Y124.726 E1.95537
G1 X128.15 Y124.691 E1.97056
G1 X127.734 Y124.86 E1.98176
G1 X126.977 Y125.082 E2.00144
G1 X126.2 Y125.227 E2.02116
G1 X125.16 Y125.297 E2.04716
G1 X124.84 Y125.297 E2.05514
G1 X124.051 Y125.257 E2.07485
G1 X123.271 Y125.138 E2.09453
G1 X122.506 Y124.94 E2.11425
G1 X121.865 Y124.703 E2.13129
G1 X121.461 Y124.732 E2.1414
G1 X120.671 Y124.709 E2.16111
G1 X119.888 Y124.607 E2.18081
G1 X118.875 Y124.351 E2.20687
G1 X118.571 Y124.252 E2.21485
G1 X117.833 Y123.969 E2.23456
G1 X117.128 Y123.614 E2.25425
G1 X116.462 Y123.189 E2.27396
G1 X115.929 Y122.767 E2.29092
G1 X115.436 Y122.642 E2.30361
G1 X114.694 Y122.37 E2.32332
G1 X113.984 Y122.025 E2.34301
G1 X113.312 Y121.61 E2.36272
G1 X112.464 Y120.934 E2.38977
G1 X112.255 Y120.742 E2.39685
G1 X111.701 Y120.179 E2.41655
G1 X111.207 Y119.563 E2.43625
G1 X110.924 Y119.126 E2.44923
G1 X110.542 Y118.889 E2.46045
G1 X109.916 Y118.407 E2.48016
G1 X109.343 Y117.864 E2.49985
G1 X108.675 Y117.063 E2.52587
G1 X108.486 Y116.803 E2.53388
G1 X108.054 Y116.142 E2.55358
G1 X107.692 Y115.44 E2.57329
G1 X107.403 Y114.705 E2.59299
G1 X107.202 Y113.99 E2.61151
G1 X106.987 Y113.735 E2.61983
G1 X106.541 Y113.084 E2.63952
G1 X106.339 Y112.733 E2.64962
G1 X106.212 Y112.499 E2.65626
G1 X105.871 Y111.786 E2.67598
G1 X105.603 Y111.043 E2.69568
G1 X105.412 Y110.277 E2.71537
G1 X105.3 Y109.495 E2.73508
G1 X105.267 Y108.706 E2.75478
G1 X105.302 Y108.129 E2.7692
G1 X105.141 Y107.734 E2.77984
G1 X104.918 Y106.976 E2.79955
G1 X104.774 Y106.2 E2.81924
G1 X104.704 Y105.16 E2.84524
G1 X104.704 Y104.84 E2.85322
G1 X104.744 Y104.051 E2.87293
G1 X104.863 Y103.271 E2.89261
G1 X105.061 Y102.506 E2.91232
G1 X105.297 Y101.87 E2.92924
G1 X105.267 Y101.462 E2.93945
G1 X105.289 Y100.672 E2.95916
G1 X105.392 Y99.889 E2.97886
G1 X105.648 Y98.875 E3.00495
G1 X105.747 Y98.571 E3.01293
G1 X106.03 Y97.833 E3.03264
G1 X106.385 Y97.128 E3.05233
G1 X106.81 Y96.462 E3.07204
G1 X107.229 Y95.933 E3.08887
G1 X107.325 Y95.542 E3.09892
G1 X107.59 Y94.798 E3.11862
G1 X107.929 Y94.085 E3.13831
G1 X108.486 Y93.199 E3.16442
G1 X108.675 Y92.939 E3.17244
G1 X109.171 Y92.324 E3.19215
G0 F3600 X109.482 Y92.576
G1 F1800 X110.026 Y92.032 E3.21134
G1 X110.623 Y91.547 E3.23052
G1 X111.213 Y91.162 E3.2481
G1 X111.566 Y90.624 E3.26415
G1 X112.053 Y90.028 E3.28335
G1 X112.513 Y89.564 E3.29965
G1 X112.721 Y89.372 E3.30671
G1 X113.312 Y88.881 E3.32588
G1 X113.952 Y88.453 E3.34508
G1 X114.632 Y88.094 E3.36426
G1 X115.346 Y87.808 E3.38345
G1 X116.086 Y87.597 E3.40264
G1 X116.178 Y87.581 E3.40497
G1 X116.698 Y87.168 E3.42154
G1 X117.279 Y86.795 E3.43876
G1 X117.5 Y86.667 E3.44513
G1 X118.185 Y86.316 E3.46433
G1 X118.902 Y86.039 E3.48351
G1 X119.645 Y85.837 E3.50271
G1 X120.404 Y85.714 E3.52189
G1 X121.172 Y85.67 E3.54108
G1 X121.923 Y85.705 E3.55984
G1 X122.585 Y85.455 E3.57749
G1 X123.329 Y85.259 E3.59668
G1 X124.089 Y85.141 E3.61587
G1 X124.839 Y85.103 E3.6346
G1 X125.159 Y85.103 E3.64258
G1 X125.927 Y85.143 E3.66177
G1 X126.687 Y85.262 E3.68095
G1 X127.43 Y85.46 E3.70014
G1 X128.055 Y85.698 E3.71682
G1 X128.783 Y85.667 E3.735
G1 X129.55 Y85.715 E3.75417
G1 X130.309 Y85.842 E3.77336
G1 X130.999 Y86.031 E3.79121
G1 X131.303 Y86.13 E3.79918
G1 X132.021 Y86.406 E3.81837
G1 X132.707 Y86.754 E3.83756
G1 X133.352 Y87.173 E3.85675
G1 X133.86 Y87.583 E3.87303
G1 X134.534 Y87.767 E3.89046
G1 X135.251 Y88.045 E3.90964
G1 X135.935 Y88.397 E3.92883
G1 X136.566 Y88.808 E3.94762
G1 X136.826 Y88.997 E3.95563
G1 X137.424 Y89.481 E3.97483
G1 X137.968 Y90.025 E3.99402
G1 X138.453 Y90.622 E4.0132
G1 X138.818 Y91.18 E4.02984
G1 X139.397 Y91.56 E4.04711
G1 X139.992 Y92.047 E4.06629
G1 X140.534 Y92.593 E4.08548
G1 X141.003 Y93.174 E4.10411
G1 X141.192 Y93.434 E4.11213
G1 X141.611 Y94.079 E4.13131
G1 X141.961 Y94.764 E4.1505
G1 X142.238 Y95.481 E4.16968
G1 X142.414 Y96.131 E4.18648
G1 X142.843 Y96.666 E4.20358
G1 X143.259 Y97.313 E4.22277
G1 X143.606 Y98 E4.24197
G1 X143.871 Y98.695 E4.26052
G1 X143.97 Y98.999 E4.2685
G1 X144.17 Y99.741 E4.28767
G1 X144.292 Y100.501 E4.30687
G1 X144.334 Y101.269 E4.32606
G1 X144.301 Y101.939 E4.34279
G1 X144.545 Y102.585 E4.36001
G1 X144.741 Y103.329 E4.37921
G1 X144.859 Y104.089 E4.39839
G1 X144.897 Y104.839 E4.41713
G1 X144.897 Y105.159 E4.42511
G1 X144.857 Y105.927 E4.44429
G1 X144.738 Y106.687 E4.46348
G1 X144.54 Y107.43 E4.48266
G1 X144.302 Y108.055 E4.49934
G1 X144.334 Y108.746 E4.5166
G1 X144.29 Y109.513 E4.53576
G1 X144.167 Y110.273 E4.55497
G1 X143.97 Y111 E4.57376
G1 X143.871 Y111.304 E4.58173
G1 X143.595 Y112.022 E4.60092
G1 X143.247 Y112.708 E4.62011
G1 X142.828 Y113.353 E4.6393
G1 X142.415 Y113.865 E4.65571
G1 X142.234 Y114.53 E4.6729
G1 X141.956 Y115.247 E4.69208
G1 X141.604 Y115.931 E4.71127
G1 X141.192 Y116.564 E4.73011
G1 X141.003 Y116.824 E4.73813
G1 X140.519 Y117.422 E4.75732
G1 X139.975 Y117.966 E4.77651
G1 X139.378 Y118.451 E4.7957
G1 X138.823 Y118.814 E4.81224
G1 X138.44 Y119.397 E4.82964
G1 X137.953 Y119.992 E4.84882
G1 X137.407 Y120.534 E4.86801
G1 X136.826 Y121.003 E4.88664
G1 X136.566 Y121.192 E4.89466
G1 X135.921 Y121.611 E4.91384
G1 X135.236 Y121.961 E4.93303
G1 X134.519 Y122.238 E4.95221
G1 X133.784 Y122.437 E4.9712
G1 X133.19 Y122.902 E4.99002
G1 X132.997 Y123.034 E4.99585
G1 X132.34 Y123.435 E5.01505
G1 X131.645 Y123.765 E5.03424
G1 X130.92 Y124.021 E5.05342
G1 X130.172 Y124.201 E5.07261
G1 X129.41 Y124.302 E5.09179
G1 X128.641 Y124.324 E5.11098
G1 X128.108 Y124.283 E5.12431
G1 X127.413 Y124.546 E5.14285
G1 X126.669 Y124.742 E5.16204
G1 X125.909 Y124.859 E5.18122
G1 X125.16 Y124.897 E5.19993
G1 X124.84 Y124.897 E5.20792
G1 X124.072 Y124.857 E5.2271
G1 X123.312 Y124.738 E5.24629
G1 X122.569 Y124.54 E5.26547
G1 X121.943 Y124.302 E5.28218
G1 X121.252 Y124.334 E5.29943
G1 X120.484 Y124.29 E5.31862
G1 X119.725 Y124.167 E5.3378
G1 X118.999 Y123.97 E5.35657
G1 X118.695 Y123.871 E5.36454
G1 X117.977 Y123.595 E5.38373
G1 X117.291 Y123.247 E5.40292
G1 X116.646 Y122.828 E5.4221
G1 X116.129 Y122.411 E5.43867
G1 X116.104 Y122.407 E5.4393
G1 X115.364 Y122.198 E5.45849
G1 X114.649 Y121.913 E5.47769
G1 X113.968 Y121.556 E5.49687
G1 X113.328 Y121.13 E5.51604
G1 X112.735 Y120.64 E5.53523
G1 X112.526 Y120.448 E5.54231
G1 X111.987 Y119.898 E5.56152
G1 X111.508 Y119.296 E5.58071
G1 X111.222 Y118.848 E5.59397
G1 X110.607 Y118.444 E5.61233
G1 X110.011 Y117.957 E5.63153
G1 X109.469 Y117.411 E5.65072
G1 X108.998 Y116.828 E5.66941
G1 X108.809 Y116.568 E5.67743
G1 X108.39 Y115.923 E5.69662
G1 X108.04 Y115.238 E5.71581
G1 X107.763 Y114.521 E5.73498
G1 X107.571 Y113.813 E5.75328
G1 X107.186 Y113.332 E5.76865
G1 X106.69 Y112.542 E5.79192
G1 X106.563 Y112.308 E5.79856
G1 X106.232 Y111.614 E5.81774
G1 X105.974 Y110.889 E5.83694
G1 X105.794 Y110.141 E5.85613
G1 X105.691 Y109.379 E5.87531
G1 X105.669 Y108.61 E5.8945
G1 X105.708 Y108.082 E5.90771
G1 X105.455 Y107.412 E5.92557
G1 X105.259 Y106.669 E5.94474
G1 X105.142 Y105.908 E5.96395
G1 X105.104 Y105.16 E5.98263
G1 X105.104 Y104.84 E5.99061
G1 X105.144 Y104.072 E6.00979
G1 X105.263 Y103.312 E6.02898
G1 X105.461 Y102.569 E6.04817
G1 X105.698 Y101.948 E6.06475
G1 X105.665 Y101.253 E6.0821
G1 X105.709 Y100.485 E6.10129
G1 X105.832 Y99.726 E6.12047
G1 X106.029 Y98.999 E6.13926
G1 X106.128 Y98.695 E6.14724
G1 X106.404 Y97.977 E6.16642
G1 X106.752 Y97.291 E6.18561
G1 X107.171 Y96.646 E6.2048
G1 X107.586 Y96.131 E6.2213
G1 X107.768 Y95.466 E6.2385
G1 X108.046 Y94.749 E6.25768
G1 X108.398 Y94.065 E6.27687
G1 X108.809 Y93.434 E6.29565
G1 X108.998 Y93.174 E6.30367
G1 X109.482 Y92.576 E6.32286
G0 F3600 X109.793 Y92.828
G1 F1800 X110.324 Y92.301 E6.34152
G1 X110.908 Y91.834 E6.36018
G1 X111.508 Y91.451 E6.37793
G1 X111.585 Y91.31 E6.38194
G1 X112.013 Y90.697 E6.40059
G1 X112.504 Y90.132 E6.41926
G1 X112.784 Y89.858 E6.42904
G1 X112.992 Y89.666 E6.4361
G1 X113.568 Y89.189 E6.45475
G1 X114.192 Y88.776 E6.47342
G1 X114.856 Y88.432 E6.49207
G1 X115.553 Y88.16 E6.51074
G1 X116.275 Y87.965 E6.52939
G1 X116.366 Y87.951 E6.53169
G1 X116.5 Y87.826 E6.53626
G1 X117.099 Y87.378 E6.55492
G1 X117.48 Y87.141 E6.56611
G1 X117.701 Y87.013 E6.57248
G1 X118.367 Y86.673 E6.59114
G1 X119.066 Y86.406 E6.6098
G1 X119.789 Y86.215 E6.62846
G1 X120.529 Y86.103 E6.64713
G1 X121.276 Y86.07 E6.66578
G1 X121.996 Y86.115 E6.68377
G1 X122.196 Y86.021 E6.68929
G1 X122.903 Y85.776 E6.70795
G1 X123.632 Y85.608 E6.72661
G1 X124.375 Y85.518 E6.74528
G1 X124.839 Y85.503 E6.75686
G1 X125.159 Y85.503 E6.76485
G1 X125.906 Y85.543 E6.78351
G1 X126.644 Y85.662 E6.80215
G1 X127.366 Y85.86 E6.82083
G1 X128.006 Y86.111 E6.83798
G1 X128.236 Y86.083 E6.84376
G1 X128.984 Y86.072 E6.86242
G1 X129.729 Y86.142 E6.88108
G1 X130.462 Y86.29 E6.89974
G1 X130.876 Y86.411 E6.9105
G1 X131.18 Y86.51 E6.91847
G1 X131.877 Y86.779 E6.93711
G1 X132.543 Y87.122 E6.9558
G1 X133.168 Y87.533 E6.97446
G1 X133.683 Y87.958 E6.99111
G1 X133.886 Y87.996 E6.99626
G1 X134.602 Y88.214 E7.01493
G1 X135.291 Y88.506 E7.0336
G1 X135.944 Y88.87 E7.05225
G1 X136.331 Y89.132 E7.06391
G1 X136.591 Y89.321 E7.07193
G1 X137.172 Y89.792 E7.09058
G1 X137.699 Y90.323 E7.10925
G1 X138.166 Y90.907 E7.1279
G1 X138.532 Y91.48 E7.14486
G1 X138.71 Y91.578 E7.14993
G1 X139.324 Y92.007 E7.16861
G1 X139.888 Y92.498 E7.18727
G1 X140.397 Y93.046 E7.20592
G1 X140.679 Y93.409 E7.21739
G1 X140.868 Y93.669 E7.22541
G1 X141.275 Y94.297 E7.24408
G1 X141.613 Y94.964 E7.26273
G1 X141.877 Y95.664 E7.28139
G1 X142.049 Y96.327 E7.29848
G1 X142.185 Y96.471 E7.30342
G1 X142.636 Y97.068 E7.32208
G1 X143.021 Y97.709 E7.34073
G1 X143.335 Y98.388 E7.35939
G1 X143.491 Y98.818 E7.37081
G1 X143.59 Y99.122 E7.37878
G1 X143.783 Y99.845 E7.39745
G1 X143.898 Y100.584 E7.4161
G1 X143.934 Y101.331 E7.43476
G1 X143.893 Y102.014 E7.45183
G1 X143.979 Y102.196 E7.45685
G1 X144.224 Y102.903 E7.47551
G1 X144.392 Y103.632 E7.49418
G1 X144.482 Y104.375 E7.51285
G1 X144.497 Y104.839 E7.52443
G1 X144.497 Y105.159 E7.53241
G1 X144.457 Y105.906 E7.55107
G1 X144.338 Y106.644 E7.56972
G1 X144.14 Y107.366 E7.58839
G1 X143.891 Y108.002 E7.60543
G1 X143.916 Y108.201 E7.61043
G1 X143.93 Y108.949 E7.62909
G1 X143.864 Y109.694 E7.64775
G1 X143.72 Y110.428 E7.66641
G1 X143.59 Y110.877 E7.67807
G1 X143.491 Y111.181 E7.68605
G1 X143.222 Y111.878 E7.70468
G1 X142.879 Y112.544 E7.72337
G1 X142.468 Y113.169 E7.74203
G1 X142.041 Y113.686 E7.75876
G1 X142.004 Y113.883 E7.76376
G1 X141.787 Y114.598 E7.7824
G1 X141.495 Y115.287 E7.80106
G1 X141.131 Y115.941 E7.81973
G1 X140.868 Y116.329 E7.83143
G1 X140.679 Y116.589 E7.83944
G1 X140.208 Y117.17 E7.8581
G1 X139.677 Y117.697 E7.87676
G1 X139.093 Y118.164 E7.89542
G1 X138.521 Y118.529 E7.91234
G1 X138.422 Y118.71 E7.91749
G1 X137.993 Y119.324 E7.93617
G1 X137.502 Y119.888 E7.95483
G1 X136.954 Y120.397 E7.97348
G1 X136.591 Y120.679 E7.98495
G1 X136.331 Y120.868 E7.99297
G1 X135.703 Y121.275 E8.01164
G1 X135.036 Y121.613 E8.03029
G1 X134.336 Y121.877 E8.04895
G1 X133.612 Y122.065 E8.06761
G1 X133.611 Y122.065 E8.06763
G1 X133.529 Y122.142 E8.07044
G1 X132.964 Y122.572 E8.08815
G1 X132.771 Y122.704 E8.09398
G1 X132.132 Y123.093 E8.11265
G1 X131.455 Y123.411 E8.1313
G1 X130.748 Y123.655 E8.14996
G1 X130.018 Y123.822 E8.16864
G1 X129.276 Y123.911 E8.18728
G1 X128.528 Y123.92 E8.20594
G1 X128.029 Y123.872 E8.21845
G1 X127.802 Y123.979 E8.22471
G1 X127.095 Y124.224 E8.24337
G1 X126.366 Y124.392 E8.26204
G1 X125.623 Y124.482 E8.28071
G1 X125.16 Y124.497 E8.29226
G1 X124.84 Y124.497 E8.30024
G1 X124.093 Y124.457 E8.3189
G1 X123.355 Y124.338 E8.33755
G1 X122.633 Y124.14 E8.35623
G1 X121.997 Y123.891 E8.37326
G1 X121.797 Y123.916 E8.37829
G1 X121.049 Y123.93 E8.39695
G1 X120.304 Y123.864 E8.41561
G1 X119.57 Y123.719 E8.43427
G1 X119.122 Y123.59 E8.4459
G1 X118.818 Y123.491 E8.45388
G1 X118.121 Y123.222 E8.47252
G1 X117.455 Y122.879 E8.4912
G1 X116.83 Y122.468 E8.50986
G1 X116.299 Y122.03 E8.52703
G1 X116.013 Y121.973 E8.53431
G1 X115.299 Y121.75 E8.55297
G1 X114.613 Y121.452 E8.57162
G1 X113.962 Y121.083 E8.59029
G1 X113.355 Y120.646 E8.60895
G1 X113.005 Y120.345 E8.62046
G1 X112.796 Y120.153 E8.62754
G1 X112.273 Y119.618 E8.64621
G1 X111.81 Y119.031 E8.66486
